X:35
T:Singling of a Troop by Mr. Weideman ThFife.35, The
B:Thompson, C. & Thompson, S., 'The Compleat Tutor for the Fife', London, c.1765-1780.
S:Digitised by National Library of Scotland at: https://archive.org/details/nlsmusic
Z:vmp Roger Hare, 2019.
M:3/8
L:1/8
Q:3/8=80
K:G
G "^NB1"|: d>ed | g>fe | d>Bc | d2 ((3B/c/d/) | e>fg | d>cB | Adc | B3 :|
|: A>BA | d2 A | B>GA | A3 | B>cd | e>fg | e>ag | f2 e/f/ |
g>fe | d>cB | c>de | d2 c/d/ | e>cA | d>BG | A>gf | g3 :|
N:NB1 Opening '|:' shifted to get repeat correct.

